!!!!SEGMENT: pl-kk--kk-i-10--024_anonim--iste-quem-laeti-colimus.krn
!!!cenid: 16xx:1229
!!!COM: Anonim
!!!COM-rismID: pe30004985
!!!CDT:
!!!CNT:
!!!OTL: Iste quem laeti colimus
!!!PDT:
!!!AGN:
!!!YEC: Copyright 2022 Narodowy Instytut Fryderyka Chopina (https://polishscores.org)
!!!YEM: License CC-BY-4.0 (https://creativecommons.org/licenses/by/4.0)
!!!SMS-siglum: PL-Kk
!!!SMS-shelfmark: Kk.I.10
!!!SMS-shelfwork: 024 W
!!!SMS-variant:
!!!SMS-altvar:
!!!NIFC-rismSourceID: 1001151827
!!!NIFC-rismChildID: 1001154014
!!!NIFC-islandoraID: pl-kk:2434
!!!URL-pdf-islandora: https://repozytorium.nifc.pl/islandora/object/pl-kk%3A2434/datastream/PDF/view
!!!URL-scan: https://polish.musicsources.pl/pl/lokalizacje/galeria/rekopisy/5737 @EN{Scan on Polish Music Sources Website} @PL{Skany w portalu Dziedzictwo Muzyki Polskiej w otwartym dostępie}
!!!IIIF:
!!!ONB-nifc: UWAGA: A (skan 0049), T (0099-0098), B (0144). Następny utwór: Ad regias Agni daepes
!!!AIN: 1 alto 1 empty 1 tenor
!!!key:
**kern	**text	**text	**text	**text	**text	**kern	**text	**text	**text	**text	**text	**kern	**text	**text	**text	**text	**text
*part3	*	*	*	*	*	*part2	*	*	*	*	*	*part1	*	*	*	*	*
*staff3	*	*	*	*	*	*staff2	*	*	*	*	*	*staff1	*	*	*	*	*
*Iempty	*	*	*	*	*	*Itenor	*	*	*	*	*	*Ialto	*	*	*	*	*
*I"[Baſsus]	*	*	*	*	*	*I"[Tenor]	*	*	*	*	*	*I"[Altus]	*	*	*	*	*
*I'B	*	*	*	*	*	*I'T	*	*	*	*	*	*I'A	*	*	*	*	*
*clefF4	*	*	*	*	*	*clefC4	*	*	*	*	*	*clefC3	*	*	*	*	*
*k[f#]	*	*	*	*	*	*k[f#]	*	*	*	*	*	*k[f#]	*	*	*	*	*
*e:	*	*	*	*	*	*e:	*	*	*	*	*	*e:	*	*	*	*	*
*M3/2	*	*	*	*	*	*M3/2	*	*	*	*	*	*M3/2	*	*	*	*	*
=1	=1	=1	=1	=1	=1	=1	=1	=1	=1	=1	=1	=1	=1	=1	=1	=1	=1
2E\	I-	O	Hinc	Er-	Sint	2B\	I-	O	Hinc	Er-	Sint	2g\	I-	O	Hinc	Er-	Sint
2D#X/	-ste	ni-	sty-	-go	ti-	2B\	-ste	ni-	sty-	-go	ti-	2f#\	-ste	ni-	sti-	-go	ti-
!LO:TX:t=De Sancto Josepho	!	!	!	!	!	!	!	!	!	!	!	!	!	!	!	!	!
!LO:TX:t=P:problem=kreska pseudotaktowa	!	!	!	!	!	!LO:TX:t=P:problem=kreska pseudotaktowa	!	!	!	!	!	!LO:TX:t=P:problem=kreska pseudotaktowa	!	!	!	!	!
2D#/	quem	-mis	-gis	re-	-bi	2B\	quem	-mis	-gis	re-	-bi	2f#\	quem	-mis	-gis	re-	-bi
=2	=2	=2	=2	=2	=2	=2	=2	=2	=2	=2	=2	=2	=2	=2	=2	=2	=2
!	!	!	!	!	!	!LO:TX:t=De S(an)cto Josepho	!	!	!	!	!	!	!	!	!	!	!
(<2.E\	lae-	fe-	Vi-	-gnan-	plau-	1B	lae-	fe-	Vi-	-gnan-	plau-	1e	lae-	fe-	Vi-	-gnan-	plau-
4D/)	.	.	.	.	.	.	.	.	.	.	.	.	.	.	.	.	.
!	!	!	!	!	!	!LO:TX:t=P:problem=kreska pseudotaktowa	!	!	!	!	!	!LO:TX:t=P:problem=kreska pseudotaktowa	!	!	!	!	!
!	!	!	!	!	!	!	!	!	!	!	!	!LO:TX:t=De Sancto Josepho	!	!	!	!	!
(4C/	-ti	-lix	-ctor	-tem	-s(us)	2B\	-ti	-lix	-ctor	-tem	-s(us)	2e\	-ti	-lix	-ctor	-tem	-s(us)
!LO:TX:t=P:problem=kreska pseudotaktowa	!	!	!	!	!	!	!	!	!	!	!	!	!	!	!	!	!
4BB/)	.	.	.	.	.	.	.	.	.	.	.	.	.	.	.	.	.
=3	=3	=3	=3	=3	=3	=3	=3	=3	=3	=3	=3	=3	=3	=3	=3	=3	=3
2.C/	co-	ni-	la-	fla-	ti-	2.e\	co-	ni-	la-	fla-	ti-	2.e\	co-	ni-	la-	fla-	ti-
8BB/L	-li-	-mis	-que-	-gi-	-bi	(8d\L	-li-	-mis	-que-	-gi-	-bi	4e\	-li-	-mis	-que-	-gi-	-bi
8AA/J	.	.	.	.	.	8c\J)	.	.	.	.	.	.	.	.	.	.	.
!LO:TX:t=P:problem=kreska pseudotaktowa	!	!	!	!	!	!LO:TX:t=P:problem=kreska pseudotaktowa	!	!	!	!	!	!LO:TX:t=P:problem=kreska pseudotaktowa	!	!	!	!	!
2GG#X/	-m(us)	o	-o	-te-	sint	2B\	-m(us)	o	-o	-te-	Sint	2e\	-m(us)	o	-o	-te-	sint
=4	=4	=4	=4	=4	=4	=4	=4	=4	=4	=4	=4	=4	=4	=4	=4	=4	=4
!LO:SIC:v:o=2GG/	!	!	!	!	!	!	!	!	!	!	!	!	!	!	!	!	!
2GG#/	fi-	be-	Sa-	-m(us)	ho-	2B\	fi-	be-	sa-	-m(us)	ho-	2e\	fi-	be-	sa-	-m(us)	ho-
!LO:TX:t=P:problem=kreska pseudotaktowa	!	!	!	!	!	!	!	!	!	!	!	!LO:TX:t=P:problem=kreska pseudotaktowa	!	!	!	!	!
!	!	!	!	!LO:SIC:v:l:o=o-	!	!	!	!	!	!	!	!	!	!	!	!	!
1AA	-de-	-a-	-lu-	om	-no-	4B\	-de-	-a-	-lu-	om-	-no-	1a	-de-	-a-	-lu-	om-	-no-
.	.	.	.	.	.	(8A\L	.	.	.	.	.	.	.	.	.	.	.
.	.	.	.	.	.	8G\J)	.	.	.	.	.	.	.	.	.	.	.
!	!	!	!	!	!	!LO:TX:t=P:problem=kreska pseudotaktowa	!	!	!	!	!	!	!	!	!	!	!
.	.	.	.	.	.	2A/	.	.	.	.	.	.	.	.	.	.	.
=5	=5	=5	=5	=5	=5	=5	=5	=5	=5	=5	=5	=5	=5	=5	=5	=5	=5
!	!	!	!	!LO:SIC:v:l:o=-men	!	!	!	!	!	!	!	!	!	!	!	!	!
!LO:TX:t=P:problem=kreska pseudotaktowa	!	!	!	!	!	!LO:TX:t=P:problem=kreska pseudotaktowa	!	!	!	!	!	!LO:TX:t=P:problem=kreska pseudotaktowa	!	!	!	!	!
1.E	-les	-tus	-t(us)	nes	-res	1.B	-les	-tus	-tus	-nes	-res	1.g#	-les	-tus	-t(us)	-nes	-res
=6	=6	=6	=6	=6	=6	=6	=6	=6	=6	=6	=6	=6	=6	=6	=6	=6	=6
2E\	cu-	cu-	car-	ad-	Tri-	2G#X/	cu-	cu-	car-	ad-	Tri-	2e\	cu-	cu-	car-	ad-	Tri-
(4E\	-i(us)	-i(us)	-nis	-sit	-ne	2G#/	-i(us)	-ius	-nis	-sit	-ne	2e\	-i(us)	-i(us)	-nis	-sit	-ne
4D\)	.	.	.	.	.	.	.	.	.	.	.	.	.	.	.	.	.
!	!	!	!	!	!	!LO:TX:t=P:problem=# above	!	!	!	!	!	!	!	!	!	!	!
!LO:TX:t=P:problem=kreska pseudotaktowa	!	!	!	!	!	!LO:TX:t=P:problem=kreska pseudotaktowa	!	!	!	!	!	!LO:TX:t=P:problem=kreska pseudotaktowa	!	!	!	!	!
2C/	ex-	ex-	ad	ut	qui	2A#X/	excelsos	extrema(m)	ad ſede[s]	ut nob[is]	qui regnas	2e\	ex-	ex-	ad	ut	qui
=7	=7	=7	=7	=7	=7	=7	=7	=7	=7	=7	=7	=7	=7	=7	=7	=7	=7
!	!	!	!	!	!	!LO:TX:t=P:problem=brak źródła-urwana kartka	!	!	!	!	!	!	!	!	!	!	!
(2.BB/	-cel-	-tre-	Se-	no-	re-	1.ryy	.	.	.	.	.	2d\	-cel-	-tre-	Se-	no-	re-
!	!	!	!	!	!	!	!	!	!	!	!	!LO:TX:t=P:problem=kreska pseudotaktowa	!	!	!	!	!
.	.	.	.	.	.	.	.	.	.	.	.	1f#	-sos	-mam	-des	-bis	-gnas
4C/)	.	.	.	.	.	.	.	.	.	.	.	.	.	.	.	.	.
!LO:TX:t=P:problem=kreska pseudotaktowa	!	!	!	!	!	!	!	!	!	!	!	!	!	!	!	!	!
2D/	-sos	-mam	-des	-bis	-gnas	.	.	.	.	.	.	.	.	.	.	.	.
!!pagebreak:original
=8	=8	=8	=8	=8	=8	=8	=8	=8	=8	=8	=8	=8	=8	=8	=8	=8	=8
!LO:LB:g=original	!	!	!	!	!	!LO:LB:g=original	!	!	!	!	!	!LO:LB:g=original	!	!	!	!	!
2.E\	ca-	Vi-	pla-	Ve-	De-	2.G/	ca-	Vi-	pla-	Ve-	De-	2.e\	ca-	Vi-	pla-	Ve-	De-
4F#\	-ni-	-gi-	-ci-	-ni-	-(us)	4A/	-ni-	-gi-	-ci-	ni-	-us	4e\	-ni-	-gi-	-ci-	ni-	-(us)
!LO:TX:t=P:problem=kreska pseudotaktowa	!	!	!	!	!	!LO:TX:t=P:problem=kreska pseudotaktowa	!	!	!	!	!	!LO:TX:t=P:problem=kreska pseudotaktowa	!	!	!	!	!
2G\	-m(us)	-les	-do	-am-	et	2B\	-m(us)	-les	-do	-am-	et	2d\	-m(us)	-les	-do	-am-	et
=9	=9	=9	=9	=9	=9	=9	=9	=9	=9	=9	=9	=9	=9	=9	=9	=9	=9
2D/	tri-	ad	so-	-q(ue)	co-	2B\	tri-	ad	So-	-q(ue)	co-	2f#\	tri-	ad	So-	-(que)	co-
(2E\	-um-	ho-	-po-	nos-	-ro-	(2B\	-um	ho-	-po-	no-	-ro-	2g\	-um-	ho-	-po-	no-	-ro-
!LO:TX:t=P:problem=kreska pseudotaktowa	!	!	!	!	!	!LO:TX:t=P:problem=kreska pseudotaktowa	!	!	!	!	!	!	!	!	!	!	!
2F#\)	.	.	.	.	.	2A#X/)	.	.	.	.	.	(4f#\	.	.	.	.	.
!	!	!	!	!	!	!	!	!	!	!	!	!LO:TX:t=P:problem=kreska pseudotaktowa	!	!	!	!	!
.	.	.	.	.	.	.	.	.	.	.	.	4e\)	.	.	.	.	.
=10	=10	=10	=10	=10	=10	=10	=10	=10	=10	=10	=10	=10	=10	=10	=10	=10	=10
!LO:TX:t=P:problem=kreska pseudotaktowa	!	!	!	!	!	!LO:TX:t=P:problem=kreska pseudotaktowa	!	!	!	!	!	!LO:TX:t=P:problem=kreska pseudotaktowa	!	!	!	!	!
1.BB	-phos	-ram	-re	-tris	-nas	1.B	phos	-ram	-re	-stris	-nas	1.d#X	-phos	-ram	-re	-stris	-nas
=11	=11	=11	=11	=11	=11	=11	=11	=11	=11	=11	=11	=11	=11	=11	=11	=11	=11
2G\	hac	Chriſ-	mi-	ob-	au-	2B\	hac	Chriſ-	mi-	ob-	au-	2g\	hac	Chriſ-	mi-	ob-	au-
2E\	di-	-t(us)	-grat	-ti-	-re-	2B\	di-	-t(us)	-grat	-ti-	-re-	2g\	di-	-t(us)	-grat	-ti-	-re-
!LO:TX:t=P:problem=kreska pseudotaktowa	!	!	!	!	!	!LO:TX:t=P:problem=kreska pseudotaktowa	!	!	!	!	!	!	!	!	!	!	!
2F#\	-e	et	ae-	-nens	-as	2A/	-e	et	ae-	-nens	-as	2a\	-e	et	ae-	-nens	-as
=12	=12	=12	=12	=12	=12	=12	=12	=12	=12	=12	=12	=12	=12	=12	=12	=12	=12
(2.G\	Jo-	Vir-	-ter-	cul-	Ser-	1B	Jo-	Vir-	-ter-	cul-	ser-	1g	Jo-	Vir-	-ter-	cul-	ser-
4F#\)	.	.	.	.	.	.	.	.	.	.	.	.	.	.	.	.	.
!	!	!	!	!	!	!LO:TX:t=P:problem=kreska pseudotaktowa	!	!	!	!	!	!LO:TX:t=P:problem=kreska pseudotaktowa	!	!	!	!	!
(4E\	-seph	-go	-nas	-pis	-vo	2B\	-seph	-go	-nas	-pis	-vo	2g\	-seph	-go	-nas	-pis	-vo
!LO:TX:t=P:problem=kreska pseudotaktowa	!	!	!	!	!	!	!	!	!	!	!	!	!	!	!	!	!
4D\)	.	.	.	.	.	.	.	.	.	.	.	.	.	.	.	.	.
=13	=13	=13	=13	=13	=13	=13	=13	=13	=13	=13	=13	=13	=13	=13	=13	=13	=13
2.C/	me-	Si-	ru-	tri-	tri-	2.c\	me-	si-	ru-	tri-	tri-	2.e\	me-	si-	ru-	tri-	tri-
4D/	-ru-	-mul	-ti-	-bu-	-bu-	4c\	-ru-	-mul	-ti-	-bu-	-bu-	4f#\	-ru-	-mul	-ti-	-bu-	-bu-
!LO:TX:t=P:problem=kreska pseudotaktowa	!	!	!	!	!	!LO:TX:t=P:problem=kreska pseudotaktowa	!	!	!	!	!	!LO:TX:t=P:problem=kreska pseudotaktowa	!	!	!	!	!
2E\	-it	ad-	-lis-	-at	-is	2G/	-it	ad-	-lis-	-at	-is	2g\	-it	ad-	-lis-	-at	-is
=14	=14	=14	=14	=14	=14	=14	=14	=14	=14	=14	=14	=14	=14	=14	=14	=14	=14
2BB/	pe-	-sti-	-q(ue)	Su-	fi-	2d\	pe-	-ſti-	-q(ue)	Su-	fi-	2g\	pe-	-sti-	-q(ue)	Su-	fi-
(2C/	-ren-	-te-	cin-	-per-	-de-	2e\	-ren-	-te-	cin-	-per-	-de-	2g\	-ren-	-te-	cin-	-per-	-de-
!LO:TX:t=P:problem=kreska pseudotaktowa	!	!	!	!	!	!LO:TX:t=P:problem=kreska pseudotaktowa	!	!	!	!	!	!LO:TX:t=P:problem=kreska pseudotaktowa	!	!	!	!	!
2D/)	.	.	.	.	.	2d\	.	.	.	.	.	2f#\	.	.	.	.	.
=15	=15	=15	=15	=15	=15	=15	=15	=15	=15	=15	=15	=15	=15	=15	=15	=15	=15
!	!	!	!	!	!	!LO:TX:t=P:problem=kreska pseudotaktowa	!	!	!	!	!	!LO:TX:t=P:problem=kreska pseudotaktowa	!	!	!	!	!
1.G	-nis	-runt	-git	-nae	-li	1.d	-nis	-runt	-git	-nae	-li	1.g	-nis	-runt	-git	-nae	-li
=16	=16	=16	=16	=16	=16	=16	=16	=16	=16	=16	=16	=16	=16	=16	=16	=16	=16
!LO:LB:g=original	!	!	!	!	!	!LO:LB:g=original	!	!	!	!	!	!LO:LB:g=original	!	!	!	!	!
2.D#X/	gau-	o-	tem-	mu-	om-	2.B\	gau-	o-	tem-	mu-	om-	2.f#\	gau-	o-	tem-	mu-	om-
4D#/	-di-	.	-po-	-ne-	.	4B\	-di-	.	-po-	-ne-	.	4f#\	-di-	.	-po-	-ne-	.
!LO:TX:t=P:problem=kreska pseudotaktowa	!	!	!	!	!	!LO:TX:t=P:problem=kreska pseudotaktowa	!	!	!	!	!	!LO:TX:t=P:problem=kreska pseudotaktowa	!	!	!	!	!
2E\	-a	-re	-ra	-ra	-ne	2B\	-a	-re	-ra	-ra	-ne	2g\	-a	-re	-ra	-ra	-ne
!!pagebreak:original
=17	=17	=17	=17	=17	=17	=17	=17	=17	=17	=17	=17	=17	=17	=17	=17	=17	=17
2.AA/	gau-	o-	tem-	mu-	om-	2.c\	gau-	o-	tem-	mu-	om-	2.f#\	gau-	o-	tem-	mu-	om-
4BB/	-di-	.	-po-	-ne-	.	4c\	-di-	.	-po-	-ne-	.	4f#\	-di-	.	-po-	-ne-	.
!LO:TX:t=P:problem=kreska pseudotaktowa	!	!	!	!	!	!LO:TX:t=P:problem=kreska pseudotaktowa	!	!	!	!	!	!LO:TX:t=P:problem=kreska pseudotaktowa	!	!	!	!	!
2C/	-a	-re	-ra	-ra	-ne	2c\	-a	-re	-ra	-ra	-ne	2e\	-a	-re	-ra	-ra	-ne
=18	=18	=18	=18	=18	=18	=18	=18	=18	=18	=18	=18	=18	=18	=18	=18	=18	=18
2GG/	Vi-	Se-	ser-	pa-	per	(2B\	Vi-	Se-	ser-	pa-	per	1e	Vi-	Se-	ser-	pa-	per
(2AA/	.	-re-	.	.	ae-	2c\)	.	.	.	.	.	.	.	.	.	.	.
!LO:TX:t=P:problem=kreska pseudotaktowa	!	!	!	!	!	!LO:TX:t=P:problem=kreska pseudotaktowa	!	!	!	!	!	!LO:TX:t=P:problem=kreska pseudotaktowa	!	!	!	!	!
2BB/)	.	.	.	.	.	2B\	.	-re-	.	.	ae-	2d#X\	.	-re-	.	.	ae-
=19	=19	=19	=19	=19	=19	=19	=19	=19	=19	=19	=19	=19	=19	=19	=19	=19	=19
!LO:TX:t=P:problem=kreska pseudotaktowa	!	!	!	!	!	!	!	!	!	!	!	!	!	!	!	!	!
1.E	-tae	-no	-tis	-cis	-vum	1.B	-tae	-no	-tis	-cis	-vum	1.e	-tae	-no	-tis	-cis	-uum
=20	=20||	=20||	=20||	=20||	=20||	=20||	=20||	=20||	=20||	=20||	=20||	=20||	=20||	=20||	=20||	=20||	=20||
2EE/	A-	.	.	.	.	2B\	A-	.	.	.	.	2e\	A-	.	.	.	.
!	!	!	!	!	!	!LO:TX:t=P:problem=kreska pseudotaktowa	!	!	!	!	!	!	!	!	!	!	!
2.E\	.	.	.	.	.	1B	-men	.	.	.	.	2.g\	.	.	.	.	.
!LO:TX:t=P:problem=kreska pseudotaktowa	!	!	!	!	!	!	!	!	!	!	!	!LO:TX:t=P:problem=kreska pseudotaktowa	!	!	!	!	!
4D\	.	.	.	.	.	.	.	.	.	.	.	4f#\	.	.	.	.	.
=21	=21	=21	=21	=21	=21	=21	=21	=21	=21	=21	=21	=21	=21	=21	=21	=21	=21
2.C/	.	.	.	.	.	1c	A-	.	.	.	.	2e\	.	.	.	.	.
.	.	.	.	.	.	.	.	.	.	.	.	2a\	-men	.	.	.	.
8BB/L	.	.	.	.	.	.	.	.	.	.	.	.	.	.	.	.	.
8AA/J	.	.	.	.	.	.	.	.	.	.	.	.	.	.	.	.	.
!LO:TX:t=P:problem=kreska pseudotaktowa	!	!	!	!	!	!	!	!	!	!	!	!LO:TX:t=P:problem=kreska pseudotaktowa	!	!	!	!	!
2GG/	.	.	.	.	.	2.B\	.	.	.	.	.	2e\	A-	.	.	.	.
=22	=22	=22	=22	=22	=22	=22-	=22	=22	=22	=22	=22	=22	=22	=22	=22	=22	=22
!LO:TX:t=P:problem=kreska pseudotaktowa	!	!	!	!	!	!	!	!	!	!	!	!	!	!	!	!	!
1.AA	.	.	.	.	.	.	.	.	.	.	.	1.a	.	.	.	.	.
.	.	.	.	.	.	8A/L	.	.	.	.	.	.	.	.	.	.	.
.	.	.	.	.	.	8G/J	.	.	.	.	.	.	.	.	.	.	.
!	!	!	!	!	!	!LO:TX:t=P:problem=kreska pseudotaktowa	!	!	!	!	!	!	!	!	!	!	!
.	.	.	.	.	.	1A	.	.	.	.	.	.	.	.	.	.	.
=23	=23	=23	=23	=23	=23	=23	=23	=23	=23	=23	=23	=23	=23	=23	=23	=23	=23
1.E	-men.	.	.	.	.	1.B	-men	.	.	.	.	1.g#X	-men	.	.	.	.
==	==	==	==	==	==	==	==	==	==	==	==	==	==	==	==	==	==
*-	*-	*-	*-	*-	*-	*-	*-	*-	*-	*-	*-	*-	*-	*-	*-	*-	*-
!!!system-decoration: [(s1,s2,s3)]
!!!RDF**kern: > = above
!!!RDF**kern: < = below
!!!ENC: Kamil Watkowski
!!!END: 2021-07-09
